SVG_Azure_All/Azure Monitor Log Analytics  Health.svg

<?xml version="1.0" encoding="UTF-8" standalone="no"?>
<!-- Generated by Microsoft Visio, SVG Export Azure Monitor Log Analytics  Health.svg Page-1 -->

<svg
   xmlns:dc="http://purl.org/dc/elements/1.1/"
   xmlns:cc="http://creativecommons.org/ns#"
   xmlns:rdf="http://www.w3.org/1999/02/22-rdf-syntax-ns#"
   xmlns:svg="http://www.w3.org/2000/svg"
   xmlns="http://www.w3.org/2000/svg"
   xmlns:sodipodi="http://sodipodi.sourceforge.net/DTD/sodipodi-0.dtd"
   xmlns:inkscape="http://www.inkscape.org/namespaces/inkscape"
   width="0.7874009in"
   height="0.47243997in"
   viewBox="0 0 56.69288 34.015715"
   xml:space="preserve"
   class="st4"
   version="1.1"
   id="svg29"
   sodipodi:docname="Azure Monitor Log Analytics  Health.svg"
   style="font-size:12px;overflow:visible;color-interpolation-filters:sRGB;fill:none;fill-rule:evenodd;stroke-linecap:square;stroke-miterlimit:3"
   inkscape:version="0.92.5 (2060ec1f9f, 2020-04-08)"><metadata
   id="metadata35"><rdf:RDF><cc:Work
       rdf:about=""><dc:format>image/svg+xml</dc:format><dc:type
         rdf:resource="http://purl.org/dc/dcmitype/StillImage" /></cc:Work></rdf:RDF></metadata><defs
   id="defs33" /><sodipodi:namedview
   pagecolor="#ffffff"
   bordercolor="#666666"
   borderopacity="1"
   objecttolerance="10"
   gridtolerance="10"
   guidetolerance="10"
   inkscape:pageopacity="0"
   inkscape:pageshadow="2"
   inkscape:window-width="640"
   inkscape:window-height="480"
   id="namedview31"
   showgrid="false"
   inkscape:zoom="2.3767859"
   inkscape:cx="37.540141"
   inkscape:cy="4.2926872"
   inkscape:window-x="0"
   inkscape:window-y="0"
   inkscape:window-maximized="0"
   inkscape:current-layer="svg29" />
	<style
   type="text/css"
   id="style2">
	<![CDATA[
		.st1 {fill:#3999c6;stroke:none;stroke-linecap:butt;stroke-width:0.91384}
		.st2 {fill:#ffffff;stroke:none;stroke-linecap:butt;stroke-width:0.799269}
		.st3 {fill:#59b4d9;stroke:none;stroke-linecap:butt;stroke-width:12.7328}
		.st4 {fill:none;fill-rule:evenodd;font-size:12px;overflow:visible;stroke-linecap:square;stroke-miterlimit:3}
	]]>
	</style>

	<g
   id="g27"
   transform="translate(-7.05704,-6.4390005)">
		<title
   id="title4">Page-1</title>
		<g
   id="group7742-1"
   transform="translate(7.05704,-34.0157)">
			<title
   id="title6">Azure Monitor Log Analytics  Health</title>
			<g
   id="group7743-2">
				<title
   id="title8">g10</title>
				<g
   id="shape7744-3">
					<title
   id="title10">rect885</title>
					<rect
   x="0"
   y="40.4547"
   width="56.692902"
   height="34.015701"
   class="st1"
   id="rect12"
   style="fill:#3999c6;stroke:none;stroke-width:0.91384;stroke-linecap:butt" />
				</g>
				<g
   id="shape7745-5"
   transform="translate(2.32784,-2.65133)">
					<title
   id="title15">rect885-6</title>
					<rect
   x="0"
   y="45.9268"
   width="51.682499"
   height="28.543699"
   class="st2"
   id="rect17"
   style="fill:#ffffff;stroke:none;stroke-width:0.79926902;stroke-linecap:butt" />
				</g>
				<g
   id="shape7746-7"
   transform="translate(5.67579,-6.13435)">
					<title
   id="title20">path8-0</title>
					<path
   d="m 0,65.43 h 20.92 v 9.04 H 0 Z M 0,52.88 h 20.92 v 9.04 H 0 Z m 24.04,0 h 20.92 v 9.04 H 24.04 Z m 0,12.55 h 20.92 v 9.04 H 24.04 Z"
   class="st3"
   id="path22"
   inkscape:connector-curvature="0"
   style="fill:#59b4d9;stroke:none;stroke-width:12.73279953;stroke-linecap:butt" />
				</g>
			</g>
		</g>
	</g>
</svg>

<?xml version="1.0" encoding="UTF-8" standalone="no"?>
<!DOCTYPE svg PUBLIC "-//W3C//DTD SVG 1.1//EN" "http://www.w3.org/Graphics/SVG/1.1/DTD/svg11.dtd">
<!-- Generated by Microsoft Visio, SVG Export Azure Monitor Log Analytics  Health.svg Page-1 -->
<svg xmlns="http://www.w3.org/2000/svg" xmlns:xlink="http://www.w3.org/1999/xlink" xmlns:ev="http://www.w3.org/2001/xml-events"
		width="0.978115in" height="1.03431in" viewBox="0 0 70.4243 74.4704" xml:space="preserve" color-interpolation-filters="sRGB"
		class="st4">
	<style type="text/css">
	<![CDATA[
		.st1 {fill:#3999c6;stroke:none;stroke-linecap:butt;stroke-width:0.91384}
		.st2 {fill:#ffffff;stroke:none;stroke-linecap:butt;stroke-width:0.799269}
		.st3 {fill:#59b4d9;stroke:none;stroke-linecap:butt;stroke-width:12.7328}
		.st4 {fill:none;fill-rule:evenodd;font-size:12px;overflow:visible;stroke-linecap:square;stroke-miterlimit:3}
	]]>
	</style>

	<g>
		<title>Page-1</title>
		<g id="group7547-1" transform="translate(7.05704,-34.0157)">
			<title>Azure Monitor Log Analytics  Health</title>
			<g id="group7548-2">
				<title>g10</title>
				<g id="shape7549-3">
					<title>rect885</title>
					<rect x="0" y="40.4547" width="56.6929" height="34.0157" class="st1"/>
				</g>
				<g id="shape7550-5" transform="translate(2.32784,-2.65133)">
					<title>rect885-6</title>
					<rect x="0" y="45.9268" width="51.6825" height="28.5437" class="st2"/>
				</g>
				<g id="shape7551-7" transform="translate(5.67579,-6.13435)">
					<title>path8-0</title>
					<path d="M0 65.43 L20.92 65.43 L20.92 74.47 L0 74.47 L0 65.43 ZM0 52.88 L20.92 52.88 L20.92 61.92 L0 61.92 L0
								 52.88 ZM24.04 52.88 L44.96 52.88 L44.96 61.92 L24.04 61.92 L24.04 52.88 ZM24.04 65.43 L44.96 65.43
								 L44.96 74.47 L24.04 74.47 L24.04 65.43 Z" class="st3"/>
				</g>
			</g>
		</g>
	</g>
</svg>
